X: 4
T: Chorus Jig
C: R-3
C: British Isles, New England
Z: Transcribed to abc by Mary Lou Knack
R: reel
M: C|
K: D
AG| "D"F2DF ABAG|FADF A2d2| D3F ABAF|"A"GFEF G2:| \K: G\
\
Bc| "G"dBcA BGFG|"D"Ad^cd A2B=c| "G"dBcA BGFG| "D"AcBA "G"G2Bc|
    "G"dBcA BGFG| "C6"ABcd efge| "G"dBcA BGFG| "D"AcBA "G"G2|] \K: D\
|:\
ag| "D"fddd fddd| fdfg "A"abag| "D"fddd fddd| "C"=cdef g2:| \K: G\
\
Bc| "G"dBcA BGFG| "D"Ad^cd A2B=c| "G"dBcA BGFG|"D"AcBA "G"G2Bc|
    "G"d2 (3cdc BGFG| "C6"ABcd efge| "G"dBcA BGFG|"D"AcBA "G"G2|]
%%text 9/1/98


